icons/svg/apple-ios.svg

<svg xmlns="http://www.w3.org/2000/svg" version="1.1" baseProfile="full" width="24" height="24" viewBox="0 0 24.00 24.00" xml:space="preserve"><path fill="#000" fill-opacity="1" stroke-linejoin="round" d="M20 9V7h-4c-1.1 0-2 .9-2 2v2c0 1.1.9 2 2 2h2v2h-4v2h4c1.1 0 2-.9 2-2v-2c0-1.1-.9-2-2-2h-2V9m-5 6H9V9h2m0-2H9c-1.1 0-2 .9-2 2v6c0 1.1.9 2 2 2h2c1.1 0 2-.9 2-2V9c0-1.1-.9-2-2-2zM4 17h2v-6H4m0-2h2V7H4v2z"/></svg>

﻿<?xml version="1.0" encoding="utf-8"?>
<!DOCTYPE svg PUBLIC "-//W3C//DTD SVG 1.1//EN" "http://www.w3.org/Graphics/SVG/1.1/DTD/svg11.dtd">
<svg xmlns="http://www.w3.org/2000/svg" xmlns:xlink="http://www.w3.org/1999/xlink" version="1.1" baseProfile="full" width="24" height="24" viewBox="0 0 24.00 24.00" enable-background="new 0 0 24.00 24.00" xml:space="preserve">
	<path fill="#000000" fill-opacity="1" stroke-linejoin="round" d="M 20,9L 20,7L 16,7C 14.9,7 14,7.9 14,9L 14,11C 14,12.1 14.9,13 16,13L 18,13L 18,15L 14,15L 14,17L 18,17C 19.1,17 20,16.1 20,15L 20,13C 20,11.9 19.1,11 18,11L 16,11L 16,9M 11,15L 9,15L 9,9L 11,9M 11,7L 9,7C 7.9,7 7,7.9 7,9L 7,15C 7,16.1 7.9,17 9,17L 11,17C 12.1,17 13,16.1 13,15L 13,9C 13,7.9 12.1,7 11,7 Z M 4,17L 6,17L 6,11L 4,11M 4,9L 6,9L 6,7L 4,7L 4,9 Z "/>
</svg>
